!!!OTL: Abendreihen
!!!ARE: Europa, Mitteleuropa, Deutschland
!!!SCT: A0282B
!!!YEM: Copyright 1995, estate of Helmut Schaffrath.
**kern
*ICvox
*Ivox
*M4/4
*k[b-]
*F:
=1
{2a
4a
4a
=2
2cc
2b-
=3
4a
4g
4f
4b-
=4
2a}
{2b-
=5
4a
4g
4f
4e
=6
2d
2c
=7
2g
2g
=8
2a}
{2b-
=9
4a
4g
4f
4e
=10
2d
2c
=11
2g
2a
=12
1f}
==
!!!AGN: Romanze, Ballade, Lied
!! Nik. Hermann: Historien von der Sindflut Leipzig 1563
!!!ONB: ESAC (Essen Associative Code) Database: ALTDEU
!!!AMT: simple quadruple
!!!AIN: vox
!!!EED: Helmut Schaffrath
!!!EEV: 1.0
*-
